svg/fluentui-system-icons/ic_fluent_comment_add_24_filled.svg

<svg width="24" height="24" viewBox="0 0 24 24" fill="none" xmlns="http://www.w3.org/2000/svg">
<path d="M23 6.5C23 3.46243 20.5376 1 17.5 1C14.4624 1 12 3.46243 12 6.5C12 9.53757 14.4624 12 17.5 12C20.5376 12 23 9.53757 23 6.5ZM18.0006 7.00001L18.0011 9.50352C18.0011 9.77966 17.7773 10.0035 17.5011 10.0035C17.225 10.0035 17.0011 9.77966 17.0011 9.50352L17.0006 7.00001H14.4956C14.2197 7.00001 13.9961 6.77615 13.9961 6.50001C13.9961 6.22387 14.2197 6.00001 14.4956 6.00001H17.0005L17 3.49927C17 3.22313 17.2239 2.99927 17.5 2.99927C17.7761 2.99927 18 3.22313 18 3.49927L18.0005 6.00001H20.4966C20.7725 6.00001 20.9961 6.22387 20.9961 6.50001C20.9961 6.77615 20.7725 7.00001 20.4966 7.00001H18.0006ZM17.5 13C19.2465 13 20.8321 12.3112 22 11.1904V14.75C22 16.5449 20.5449 18 18.75 18H13L8 21.75C7.17595 22.368 6 21.7801 6 20.75V18H5.25C3.45508 18 2 16.5449 2 14.75V6.25C2 4.45507 3.45507 3 5.25 3H12.0218C11.375 4.0103 11 5.21136 11 6.5C11 10.0899 13.9101 13 17.5 13Z" fill="#212121"/>
</svg>

<svg xmlns="http://www.w3.org/2000/svg" width="24" height="24"><path d="M23 6.5a5.5 5.5 0 1 0-11 0 5.5 5.5 0 0 0 11 0ZM18 7l.001 2.504a.5.5 0 1 1-1 0V7h-2.505a.5.5 0 0 1 0-1H17V3.5a.5.5 0 0 1 1 0V6h2.497a.5.5 0 0 1 0 1H18Zm-.5 6a6.478 6.478 0 0 0 4.5-1.81v3.56A3.25 3.25 0 0 1 18.75 18H13l-5 3.75c-.824.618-2 .03-2-1V18h-.75A3.25 3.25 0 0 1 2 14.75v-8.5A3.25 3.25 0 0 1 5.25 3h6.772A6.5 6.5 0 0 0 17.5 13Z"/></svg>
